X:1
T:Somme, 12.12.12.12
T:Somme, 12.12.12.12
T:William Fiske Sherwin, 1881
T:Public Domain Courtesy of the Cyber Hymnal™
C:William Fiske Sherwin, 1881
Z:Public Domain
Z:Courtesy of the Cyber Hymnal™
%%score ( 1 2 ) ( 3 4 )
L:1/8
Q:1/4=113
M:4/4
K:G
V:1 treble 
V:2 treble 
V:3 bass 
V:4 bass 
V:1
|: D4 | [DG]2 [DF]2 [DG]2 [GB]2 | [FA]4 [=Fd]4 | [Ec]2 [DB]2 [DA]2 [CA]2 | [B,G]4 :| [DB]4 | %6
 [Ee]2 [Ed]2 [Ec]2 [EB]2 | [Ec]4 [E^c]4 | [Dd]2 [Fc]2 [GB]2 [FA]2 | [GB]4 [DB]4 | %10
 [^DB]2 [DA]2 [EG]2 [=FG]2 | [EG]4 [Ac]4 | [GB]2 [EA]2 [DG]2 [DF]2 | [DG]4 |] %14
V:2
|: D4 | x8 | x8 | x8 | x4 :| x4 | x8 | x8 | x8 | x8 | x8 | x8 | x8 | x4 |] %14
V:3
|: [G,B,]4 | [G,B,]2 [A,C]2 [B,D]2 [G,D]2 | [D,D]4 [B,,G,]4 | [C,G,]2 G,2 [D,G,]2 [D,F,]2 | %4
 [G,,G,]4 :| G,4 | [E,^G,]2 [E,B,]2 [E,A,]2 [E,G,]2 | A,4 [G,A,]4 | [F,A,]2 [D,D]2 [D,D]2 [D,D]2 | %9
 [G,D]4 [G,,G,]4 | [B,,F,]2 [B,,B,]2 [E,B,]2 [D,B,]2 | [C,C]4 [A,,E]4 | %12
 [B,,D]2 [C,C]2 [D,B,]2 [D,A,]2 | [G,,B,]4 |] %14
V:4
|: x4 | x8 | x8 | x2 G,2 x4 | x4 :| G,4 | x8 | A,4 x4 | x8 | x8 | x8 | x8 | x8 | x4 |] %14

